!!!OTL: Koenig und Marquise.
!!!OTL-incipit: Es giengen drey Frawen,
!!!ODT: 1586
!!!ARE: Europa, Mitteleuropa, Deutschland
!!!YOR: 2, S. 30
!!    1586 gedruckt in Muenchen
!!!SCT: Q1035A
!!!YEM: Copyright 1995, estate of Helmut Schaffrath.
**kern	**text
*ICvox	*
*M6/8	*
*k[f#]	*
*e:	*
!LO:TX:a:t=Münchener Gesangbuch 1586 (Bämker 1, 508)	!
{8b	Es
=1:	=1:
4b	gien-
8a	-gen
4g	drey
(8e	Fra-
=2:	=2:
8b	.
4dd)	.
4b}	-wen,
{8cc	ſie
=3:	=3:
8b	wol-
8b	-ten
8a	das
4g	grab
8e	be-
=4:	=4:
(8b	-ſcha-
4dd)	.
4b}	-wen.
{8b	Da
=5:	=5:
4ee	ruefft
8ee	der
4dd	En-
8b	-gel
=6:	=6:
(4dd	he-
8cc)	.
4b}	-re
{8cc	'Wen
=7:	=7:
8b	ſu-
8b	-chet
8a	ihr
8g	Fra-
8g	-wen
8e	ſo
=8:	=8:
(8b	ſeh-
4dd)	.
4b}	-re?
{8b	So
=9:	=9:
4ee	iſt
8ee	er
4dd	je
8b	er-
=10:	=10:
(4dd	-ſtan-
8cc)	.
4b}	-den,
{8cc	den
=11:	=11:
4b	jhr
8a	da
8.bL	wöl-
16aJ	.
8g	-len
=12:	=12:
(4f#	ſal-
8g)	.
(4e	-ben,
8f#)}	.
=13:	=13:
{4d	Ky-
8e	-ri-
8e	-e-
4e	-ley-
=14:	=14:
2e}	-ſon.'
==	==
!!!Ag: geistlich
!! Geistliche Melodie, Ursprung der Balladenmelodie ?
!!    Schlusstakt rhythmisch korrigiert.
!!!ONB: ESAC (Essen Associative Code) Database: BALLADE
!!!AMT: compound duple
!!!AIN: vox
!!!EED: Helmut Schaffrath
!!!EEV: 1.0
!!!source: Deutsche Volkslieder mit ihren Melodien. Herausgegeben vom Deutschen Volksliedarchiv. Zweiter Band Balladen. Berlin 1939.
!!!page: 30
!!!ENC: Anna Maria Matuszewska
!!!EEV: 2025/02/14
*-	*-
